X:1
T: Miss Maitland (of Freugh's) Reel
C:R. Mackintosh
R:Reel
Q: 232
K:D
M:4/4
L:1/8
|:A|FD D1/2D1/2D A,D FD|B,E ED CA, AG|FD D1/2D1/2D A,D FD|B,B AF D1/2D1/2D DA|
FD D1/2D1/2D A,D FD|B,E ED CA, AG|FD D1/2D1/2D A,D FD|B,B AF D1/2D1/2D DA|
df ce Bd Ac|GB FA EB, B,c|df ce Bd A=c|Bb a3/2g1/2 fd dA|
df ce Bd A=c|GB FA EB, B,G|FD GD AD BD|d1/2c1/2B1/2c1/2 dF D1/2D1/2D D:|
